openmetadata-ui/src/main/resources/ui/src/assets/svg/ic-mydata.svg

<svg width="20" height="20" viewBox="0 0 20 20" fill="none" xmlns="http://www.w3.org/2000/svg">
<path d="M0 5.9375H1.21094V7.10938H0V12.9688H1.21094V14.1406H0V20H20V14.1406H18.7891V12.9688H20V7.10938H18.7891V5.9375H20V0H0V5.9375ZM18.8281 18.8281H1.17188V15.3125H18.8281V18.8281ZM17.6172 14.1406H2.38281V12.9688H17.6172V14.1406ZM18.8281 11.7969H1.17188V8.28125H18.8281V11.7969ZM17.6172 7.10938H2.38281V5.9375H17.6172V7.10938ZM1.17188 1.17188H18.8281V4.76562H1.17188V1.17188Z" fill="#37352F"/>
<path d="M2.38281 2.42188H3.55469V3.59375H2.38281V2.42188Z" fill="#37352F"/>
<path d="M4.72656 2.42188H5.89844V3.59375H4.72656V2.42188Z" fill="#37352F"/>
<path d="M7.07031 2.42188H8.24219V3.59375H7.07031V2.42188Z" fill="#37352F"/>
<path d="M11.7578 2.42188H17.6172V3.59375H11.7578V2.42188Z" fill="#37352F"/>
<path d="M2.38281 9.45312H3.55469V10.625H2.38281V9.45312Z" fill="#37352F"/>
<path d="M4.72656 9.45312H5.89844V10.625H4.72656V9.45312Z" fill="#37352F"/>
<path d="M7.07031 9.45312H8.24219V10.625H7.07031V9.45312Z" fill="#37352F"/>
<path d="M11.7578 9.45312H17.6172V10.625H11.7578V9.45312Z" fill="#37352F"/>
<path d="M2.38281 16.4844H3.55469V17.6562H2.38281V16.4844Z" fill="#37352F"/>
<path d="M4.72656 16.4844H5.89844V17.6562H4.72656V16.4844Z" fill="#37352F"/>
<path d="M7.07031 16.4844H8.24219V17.6562H7.07031V16.4844Z" fill="#37352F"/>
<path d="M11.7578 16.4844H17.6172V17.6562H11.7578V16.4844Z" fill="#37352F"/>
</svg>

<svg xmlns="http://www.w3.org/2000/svg" width="20" height="20" fill="none"><path fill="#37352F" d="M0 5.938h1.21v1.171H0v5.86h1.21v1.172H0V20h20v-5.86h-1.21V12.97H20v-5.86h-1.21V5.938H20V0H0v5.938Zm18.828 12.89H1.172v-3.515h17.656v3.515Zm-1.21-4.687H2.382v-1.172h15.234v1.172Zm1.21-2.344H1.172V8.28h17.656v3.516Zm-1.21-4.688H2.382V5.938h15.234v1.171ZM1.171 1.172h17.656v3.594H1.172V1.172Z"/><path fill="#37352F" d="M2.383 2.422h1.172v1.172H2.383V2.422ZM4.727 2.422h1.171v1.172H4.727V2.422ZM7.07 2.422h1.172v1.172H7.07V2.422ZM11.758 2.422h5.86v1.172h-5.86V2.422ZM2.383 9.453h1.172v1.172H2.383V9.453ZM4.727 9.453h1.171v1.172H4.727V9.453ZM7.07 9.453h1.172v1.172H7.07V9.453ZM11.758 9.453h5.86v1.172h-5.86V9.453ZM2.383 16.484h1.172v1.172H2.383v-1.172ZM4.727 16.484h1.171v1.172H4.727v-1.172ZM7.07 16.484h1.172v1.172H7.07v-1.172ZM11.758 16.484h5.86v1.172h-5.86v-1.172Z"/></svg>
